X: 41991
T: Walls Of Liscarrol, The
R: jig
M: 6/8
K: Ddorian
|:dcA AGE|GED D2E|GEE cEE|GAB cde|
dcA AGE|GED D2E|GEE cEE|DED D3:|
|:dAd ecA|dAd ecA|GEE cEE|GAB cde|
[1 dAd ecA|dAd ecA|GEE cEE|DED D3:|
[2 dcA AGE|GED D2E|GEE cEE|DED D3||

